X:1
T:Title
%%score ( 1 2 ) { 3 | 4 }
L:1/8
Q:1/4=100
M:4/4
K:Eb
V:1 treble nm="Grand Piano, Soprano"
V:2 treble 
V:3 bass nm="Choir Pad, Easter Bells (Gabriel)"
V:4 bass 
V:1
 [EG][FA] [GB]2 [EG][FA] [GB]2 | [EG][FA] [GB]2 [Ge]2 [GB]2 | Bc [Ac]2 D-[Dc] [Ac]2 | %3
w: By~Charles~Hutchinson~Gabriel,~1892 * * * * *|||
 D-[Dc] [Ac]2 dc [GB]2 | [EG]2 [DF]2 [DB]2 [Fd]2 | [Ec]2 [DB]6 | [GB]2 [FA]2 [Ac]2 [Ac]2 | %7
w: ||||
 [DF]2 [EG]2 [GB]2 [GB]2 | [EG]2 [FA]2 [Ac]2 [Ac]2 | [DF]2 [EG]2 [GB]2 [GB]2 | %10
w: |||
 [EB]2 [Ec]2 [Fc]2 [Fd]2 | [Ad]2 [Ge]6 | z2 G2 z2 G2 | z2 G6 | Bc d2 F2 F2 | Bc [Gc]2 G2 G2 | %16
w: ||||||
 z2 G2 z2 G2 | z2 G6 | [EB]2 [Ec]2 [Fc]2 [Fd]2 | [Ad]2 [Ge]6- | [Ge]2 z2 z4 |] %21
w: |||||
V:2
 x8 | x8 | G2 z2 .F2 z2 | .F2 z2 A2 z2 | x8 | x8 | x8 | x8 | x8 | x8 | x8 | x8 | z2 e2- [Ee]2 B2- | %13
 [EB]2 E2 E2 E2 | G2 A4 A2- | A2 z2 z4 | B2 e2- [Ee]2 B2- | [EB]2 E2 E2 E2 | x8 | x8 | x8 |] %21
V:3
 B,2 E2 B,2 E2 | B,2[K:treble] E2 B,2 E2 | E2 D2[K:bass] B,2 D2 | B,2 D2 B,2 B,2 | %4
 B,2 B,2 B,2 B,2 | =A,2 B,6 | B,2 B,2[K:treble] D2 D2 | B,2 B,2 E2 E2 | B,2 B,2 D2 D2 | %9
 B,2 B,2 E2 E2 | G,2 A,2 =A,2 B,2 | B,2 B,6 | z2 B,4 E2- | E2 B,4 z2 | E2 D2 D2 D2 | %15
 D2 E2[K:bass] B,2 B,2 | B,2 B,4 E2- | E2 B,4 z2 | G,2 A,2 =A,2 B,2 | B,2 B,6- | B,2 z2 z4 |] %21
V:4
 E,2 E,2 E,2 E,2 | E,2 E,2 E,2 E,2 | E,2 B,,2 B,,2 B,,2 | B,,2 B,,2 C,D, E,2 | E,2 F,2 F,2 F,2 | %5
 F,2 B,,6 | B,,2 z2 B,2 B,2 | z2 E,2 E,2 E,2 | E,2 B,,2 B,,2 B,,2 | B,,2 E,2 E,2 E,2 | %10
 E,2 z2 F,2 z2 | B,,2 E,6 | z2 E,2 G,2 B,2 | G,2 E,2 G,2 B,2 | E,2 B,,4 B,,2- | B,,2 E,6 | %16
 z2 E,2 G,2 B,2 | G,2 E,2 G,2 B,2 | E,2 z2 F,2 z2 | B,,2 E,6- | E,2 z2 z4 |] %21

